!!!SOCIAL_FUNCTION:	songs of the turkey dance
!!!PDT:	1922
!!!OTL: No_33_Turkey_Dance_Song_(d).krn
!!!REG: Southwest
!!!LANG: Non-Tone
!!!LING_GROUP: Uto-Aztecan
**kern	**kern
*staff2	*staff1
=1-	=1-
*clefF4	*clefF4
*k[b-e-a-]	*k[b-e-a-]
*M3/4	*M3/4
8GG/L	2f\
8GG/J	.
8GG/L	.
8GG/J	.
8GG/L	16e-\LK
.	8.f\J
8GG/J	.
=2||	=2||
*M2/4	*M2/4
2r	16.e-\LL
.	32f\JK
.	8e-\J
.	8.B-\L
.	16B-\Jk
=3||	=3||
*M3/4	*M3/4
2.r	[2B-\
.	8.B-\L]
.	16e-\Jk
=4||	=4||
*M2/4	*M2/4
2r	4.B-;\
.	8e-\
=5||	=5||
*M3/4	*M3/4
2.r	2d\
.	16c\LK
.	8.f\J
=6||	=6||
*M2/4	*M2/4
2r	16.e-\LL
.	32f\JK
.	8e-\J
.	[4B-\
=7	=7
2r	4B-\]
.	16A-\LK
.	8.B-\J
=8	=8
2r	16.A-\LL
.	32B-\JK
.	8A-\J
.	8.F\L
.	16F\Jk
=9||	=9||
*M3/4	*M3/4
2.r	[2F\
.	8.F\L]
.	16A-\Jk
=10||	=10||
*M2/4	*M2/4
2r	4.F;\
.	8A-\
=11||	=11||
*M3/4	*M3/4
2.r	2F\
.	16E-\LK
.	8.F\J
=12||	=12||
*M2/4	*M2/4
2r	16.E-\LL
.	32F\JK
.	8E-\J
.	4BB-/
=13	=13
2r	2BB-/
==	==
*-	*-
